ui/StatusQ/src/assets/img/icons/emojis.svg

<svg fill="none" height="24" viewBox="0 0 24 24" width="24" xmlns="http://www.w3.org/2000/svg"><g fill="#000"><path clip-rule="evenodd" d="m12 20.5c4.6944 0 8.5-3.8056 8.5-8.5 0-4.69442-3.8056-8.5-8.5-8.5-4.69442 0-8.5 3.80558-8.5 8.5 0 4.6944 3.80558 8.5 8.5 8.5zm0 1.5c5.5228 0 10-4.4772 10-10 0-5.52285-4.4772-10-10-10-5.52285 0-10 4.47715-10 10 0 5.5228 4.47715 10 10 10z" fill-rule="evenodd"/><path d="m9.56858 15.1746c-.33955-.2373-.81146-.2438-1.10436.0491-.29289.2929-.29546.7723.03286 1.0248.96987.7461 2.18452 1.1896 3.50272 1.1896s2.5328-.4435 3.5026-1.1896c.3284-.2525.3258-.7319.0329-1.0248s-.7648-.2864-1.1044-.0491c-.6889.4812-1.527.7635-2.4311.7635-.9042 0-1.7423-.2823-2.43122-.7635z"/><path d="m17 10.5c0 .8284-.6716 1.5-1.5 1.5s-1.5-.6716-1.5-1.5c0-.82843.6716-1.5 1.5-1.5s1.5.67157 1.5 1.5z"/><path d="m10 10.5c0 .8284-.67157 1.5-1.5 1.5s-1.5-.6716-1.5-1.5c0-.82843.67157-1.5 1.5-1.5s1.5.67157 1.5 1.5z"/></g></svg>

<svg width="24" height="24" viewBox="0 0 24 24" fill="none" xmlns="http://www.w3.org/2000/svg">
<path fill-rule="evenodd" clip-rule="evenodd" d="M12 20.5C16.6944 20.5 20.5 16.6944 20.5 12C20.5 7.30558 16.6944 3.5 12 3.5C7.30558 3.5 3.5 7.30558 3.5 12C3.5 16.6944 7.30558 20.5 12 20.5ZM12 22C17.5228 22 22 17.5228 22 12C22 6.47715 17.5228 2 12 2C6.47715 2 2 6.47715 2 12C2 17.5228 6.47715 22 12 22Z" fill="black"/>
<path d="M9.56858 15.1746C9.22903 14.9373 8.75712 14.9308 8.46422 15.2237C8.17133 15.5166 8.16876 15.996 8.49708 16.2485C9.46695 16.9946 10.6816 17.4381 11.9998 17.4381C13.318 17.4381 14.5326 16.9946 15.5024 16.2485C15.8308 15.996 15.8282 15.5166 15.5353 15.2237C15.2424 14.9308 14.7705 14.9373 14.4309 15.1746C13.742 15.6558 12.9039 15.9381 11.9998 15.9381C11.0956 15.9381 10.2575 15.6558 9.56858 15.1746Z" fill="black"/>
<path d="M17 10.5C17 11.3284 16.3284 12 15.5 12C14.6716 12 14 11.3284 14 10.5C14 9.67157 14.6716 9 15.5 9C16.3284 9 17 9.67157 17 10.5Z" fill="black"/>
<path d="M10 10.5C10 11.3284 9.32843 12 8.5 12C7.67157 12 7 11.3284 7 10.5C7 9.67157 7.67157 9 8.5 9C9.32843 9 10 9.67157 10 10.5Z" fill="black"/>
</svg>
